component-icons/svg/dropdownlist.svg

<?xml version="1.0" encoding="utf-8"?>
<!-- Generator: Adobe Illustrator 24.2.3, SVG Export Plug-In . SVG Version: 6.00 Build 0)  -->
<svg version="1.1" id="Layer_1" xmlns="http://www.w3.org/2000/svg" xmlns:xlink="http://www.w3.org/1999/xlink" x="0px" y="0px"
	 width="24px" height="24px" viewBox="0 0 24 24" enable-background="new 0 0 24 24" xml:space="preserve">
<path d="M20,19.2L17.2,22H4V4H2v20h16l4-4l0,0V4h-2V19.2z M6,12h10l2-2H6V12z M0,0v2h22l2-2H0z M6,6v2h10l2-2H6z M6,16h6l2-2H6V16z"
	/>
</svg>

<svg id="Layer_1" data-name="Layer 1" xmlns="http://www.w3.org/2000/svg" viewBox="0 0 24 24">
  <defs>
    <style>
      .cls-1 {
        fill: gray;
      }
    </style>
  </defs>
  <title>dropdownlist</title>
  <path class="cls-1" d="M20,19.17,17.17,22H4V4H2V24H18l4-4h0V4H20ZM6,12H16l2-2H6ZM0,0V2H22l2-2ZM6,6V8H16l2-2ZM6,16h6l2-2H6Z"/>
</svg>
